X:5
T: Mick Barry's
S: B.Breathnach:"Ceol Rince na hEireann" II/1 (gan ainm)
Z: B.Black
L: 1/8
M: 6/8
R: jig
K: D
D|FFF EFE|DFA d2A|ded cAG|EFG AFD|
FFF E2E|DFA dcd|edc ABc|dfe d2 :|
e|f2a g2e|fdB AB=c|B2B EFG|A2E FED|
f2a g2e|fdB A2A|Bcd ecA|d3 d2 :|
